packages/core/src/svgs/tokens/branded/WAM.svg

<svg width="24" height="24" viewBox="0 0 24 24" fill="none" xmlns="http://www.w3.org/2000/svg">
<path d="M11.998 21.3756C17.1756 21.3756 21.373 17.1782 21.373 12.0005C21.373 6.82293 17.1756 2.62561 11.998 2.62561C6.82037 2.62561 2.62305 6.82293 2.62305 12.0005C2.62305 17.1782 6.82037 21.3756 11.998 21.3756Z" fill="#FFCD00"/>
<path d="M10.2922 20.2944C12.9445 20.2944 15.488 19.2407 17.3634 17.3654C19.2386 15.49 20.2923 12.9466 20.2923 10.2943C20.2923 7.85684 19.0797 5.60684 17.6235 3.8756C19.811 5.70684 21.5422 8.46309 21.5422 11.5444C21.5422 14.1965 20.4887 16.74 18.6133 18.6154C16.7379 20.4908 14.1944 21.5443 11.5423 21.5443C8.46103 21.5443 5.70479 19.8131 3.87354 17.6256C5.61103 19.0818 7.84854 20.2944 10.2922 20.2944Z" fill="#FCB501"/>
<path d="M14.9602 17.0006H9.39144L8.89142 15.6255C8.82893 15.4568 8.95393 15.2755 9.14148 15.2506L15.3977 14.5006C15.6226 14.4756 15.8039 14.6756 15.7289 14.8756L14.9602 17.0006ZM10.1226 10.7506L8.87269 7.6256H6.68519C6.63575 7.62596 6.58713 7.63805 6.54328 7.66086C6.49943 7.68367 6.46161 7.71655 6.43294 7.75682C6.40427 7.79707 6.38556 7.84356 6.37834 7.89246C6.37114 7.94135 6.37561 7.99126 6.39144 8.03808L7.93518 13.2506L16.3726 12.0005L17.6039 8.04434C17.6209 7.99716 17.6265 7.94656 17.6198 7.89683C17.6132 7.8471 17.5947 7.79971 17.5658 7.75862C17.5371 7.71756 17.4987 7.68403 17.4543 7.66087C17.4098 7.63771 17.3603 7.62561 17.3102 7.6256H15.1227L13.8726 10.7506L13.0727 7.85059C13.0537 7.78568 13.0142 7.72866 12.9601 7.6881C12.906 7.64753 12.8402 7.6256 12.7727 7.6256H11.3727C11.3051 7.6256 11.2393 7.64753 11.1852 7.6881C11.1311 7.72866 11.0916 7.78568 11.0726 7.85059L10.1226 10.7506Z" fill="#221E20"/>
<path d="M9.49846 14.8131C9.84365 14.8131 10.1235 14.5332 10.1235 14.188C10.1235 13.8429 9.84365 13.5631 9.49846 13.5631C9.15342 13.5631 8.87354 13.8429 8.87354 14.188C8.87354 14.5332 9.15342 14.8131 9.49846 14.8131Z" fill="#221E20"/>
<path d="M12.955 13.7068C12.955 13.8726 12.8892 14.0316 12.772 14.1488C12.6547 14.2659 12.4958 14.3318 12.3301 14.3318C12.1643 14.3318 12.0053 14.2659 11.8881 14.1488C11.771 14.0316 11.7051 13.8726 11.7051 13.7068C11.7051 13.5411 11.771 13.3822 11.8881 13.2649C12.0053 13.1477 12.1643 13.0819 12.3301 13.0819C12.4958 13.0819 12.6547 13.1477 12.772 13.2649C12.8892 13.3822 12.955 13.5411 12.955 13.7068ZM15.7489 13.2506C15.7489 13.4163 15.683 13.5752 15.5657 13.6925C15.4486 13.8097 15.2897 13.8755 15.1238 13.8755C14.958 13.8755 14.7991 13.8097 14.6818 13.6925C14.5647 13.5752 14.4988 13.4163 14.4988 13.2506C14.4988 13.0848 14.5647 12.9259 14.6818 12.8086C14.7991 12.6915 14.958 12.6256 15.1238 12.6256C15.2897 12.6256 15.4486 12.6915 15.5657 12.8086C15.683 12.9259 15.7489 13.0848 15.7489 13.2506Z" fill="#221E20"/>
<path d="M20.7481 12.0005C20.7466 13.3068 20.4528 14.5962 19.888 15.774C19.3233 16.9519 18.502 17.9883 17.4844 18.8073C16.4667 19.6263 15.2788 20.2071 14.0074 20.5071C12.736 20.807 11.4136 20.8185 10.1373 20.5407C8.86093 20.2629 7.66295 19.7029 6.63127 18.9017C5.59961 18.1004 4.7604 17.0784 4.17524 15.9106C3.59009 14.7428 3.27383 13.4587 3.24968 12.1526C3.22553 10.8466 3.4941 9.55171 4.03568 8.36309C4.15443 8.11309 4.11068 7.80684 3.91069 7.6131C3.61693 7.31309 3.11693 7.38183 2.94193 7.76309C1.95171 9.88013 1.73426 12.277 2.32738 14.5377C2.92048 16.7983 4.28667 18.7799 6.18867 20.138C8.09067 21.4963 10.4082 22.1454 12.7391 21.9726C15.0698 21.7999 17.2665 20.8163 18.9475 19.1924C20.6285 17.5687 21.6877 15.4075 21.941 13.0841C22.1945 10.7608 21.626 8.422 20.3345 6.4741C19.043 4.52619 17.11 3.09217 14.8713 2.42111C12.6325 1.75003 10.2295 1.88431 8.07942 2.80061C7.99908 2.83647 7.92763 2.88956 7.8701 2.95614C7.81256 3.0227 7.77037 3.1011 7.74652 3.18578C7.72267 3.27047 7.71773 3.35937 7.73205 3.44617C7.74639 3.53298 7.77962 3.61557 7.82942 3.6881C8.00442 3.9506 8.34818 4.0381 8.64192 3.91935C9.97148 3.36712 11.4168 3.1515 12.8496 3.2916C14.2826 3.43171 15.6587 3.9232 16.8561 4.72253C18.0535 5.52184 19.0353 6.60427 19.7141 7.87383C20.3931 9.14338 20.7482 10.5609 20.7481 12.0005Z" fill="#2E2720"/>
<path d="M6.56086 5.14435C6.82961 4.93184 6.90462 4.55061 6.7171 4.26935C6.67322 4.19954 6.61527 4.13963 6.54695 4.09346C6.47862 4.04728 6.40143 4.01584 6.32029 4.00114C6.23915 3.98645 6.15584 3.98881 6.07567 4.00808C5.99549 4.02736 5.9202 4.06313 5.85462 4.11311C5.31133 4.53596 4.81289 5.01346 4.36712 5.5381C4.27141 5.65325 4.22273 5.80029 4.23086 5.9498C4.23896 6.09931 4.30326 6.24023 4.41087 6.34435C4.67961 6.61309 5.12337 6.5756 5.37337 6.28185C5.72961 5.86934 6.12962 5.48809 6.56086 5.14435Z" fill="#2E2720"/>
</svg>

<svg xmlns="http://www.w3.org/2000/svg" width="24" height="24" fill="none" viewBox="0 0 24 24">
    <path fill="#FFCD00" d="M11.998 21.376a9.375 9.375 0 1 0 0-18.75 9.375 9.375 0 0 0 0 18.75"/>
    <path fill="#FCB501" d="M10.292 20.294a10 10 0 0 0 10-10c0-2.437-1.212-4.687-2.669-6.418 2.188 1.83 3.92 4.587 3.92 7.668a10 10 0 0 1-10 10c-3.082 0-5.838-1.73-7.67-3.918 1.738 1.456 3.976 2.668 6.42 2.668"/>
    <path fill="#221E20" d="M14.96 17H9.391l-.5-1.374c-.062-.17.063-.35.25-.375l6.257-.75c.225-.025.406.175.33.375zm-4.837-6.25-1.25-3.124H6.685a.312.312 0 0 0-.294.412l1.544 5.213L16.373 12l1.23-3.957a.312.312 0 0 0-.293-.418h-2.187l-1.25 3.125-.8-2.9a.31.31 0 0 0-.3-.225h-1.4a.31.31 0 0 0-.3.225zm-.625 4.063a.625.625 0 1 0 0-1.25.625.625 0 0 0 0 1.25m3.457-1.106a.625.625 0 1 1-1.25 0 .625.625 0 0 1 1.25 0m2.794-.456a.625.625 0 1 1-1.25 0 .625.625 0 0 1 1.25 0"/>
    <path fill="#2E2720" d="M20.748 12A8.75 8.75 0 1 1 4.036 8.364a.66.66 0 0 0-.125-.75c-.294-.3-.794-.231-.97.15A10 10 0 1 0 8.08 2.801a.6.6 0 0 0-.25.887.67.67 0 0 0 .813.231 8.75 8.75 0 0 1 12.106 8.082"/>
    <path fill="#2E2720" d="M6.56 5.144a.657.657 0 0 0 .157-.875.593.593 0 0 0-.862-.156q-.817.636-1.488 1.425a.594.594 0 0 0 .044.806c.269.27.712.232.962-.062a9 9 0 0 1 1.188-1.138"/>
</svg>
